X: 3
T: The Boys Of Bluehill
R: hornpipe
M: 4/4
L: 1/8
K: Dmaj
dA|:{c}BAFA A,DFA|{c}BAAa eade|(3{g}fed df ed{g}fe|d2 (3fed Bd{e}dB|(3ABA {B}Ad AdFA|{c}BAAa eade|(3{g}fed df ed{g}fe|1 d2 (3fed B d FA:|2 d2 (3fed ddef||:a3 f adfa|g2 Ba bdgb|aBfd edfe|d2 (3fed Bd{e}dB|(3ABA {B}Ad AdFA|{c}BAAa eade|(3{g}fed df ed{g}fe|1 d2 (3fed d efg:|2 d2 (3fed d2 z2 |]


Tune 651	Setting 651

